src/img/categ_2.svg

<svg width="100" height="100" viewBox="0 0 100 100" fill="none" xmlns="http://www.w3.org/2000/svg">
<g clip-path="url(#clip0_628_525)">
<path d="M84.6851 33.7601H15.3149C14.6678 33.7601 14.1431 33.2354 14.1431 32.5883V8.24723C14.1431 7.6001 14.6678 7.07544 15.3149 7.07544H84.6851C85.3323 7.07544 85.8571 7.6001 85.8571 8.24723V32.5883C85.8569 33.2354 85.3323 33.7601 84.6851 33.7601ZM16.4867 31.4164H83.5132V9.41902H16.4867V31.4164Z" fill="#1E2E36"/>
<path d="M79.3066 33.7601H20.693C20.0459 33.7601 19.5212 33.2354 19.5212 32.5883V13.6254C19.5212 12.9783 20.0459 12.4536 20.693 12.4536H79.3066C79.9538 12.4536 80.4786 12.9783 80.4786 13.6254V32.5881C80.4786 33.2354 79.9539 33.7601 79.3066 33.7601V33.7601ZM21.865 31.4163H78.1349V14.7974H21.865V31.4163Z" fill="#1E2E36"/>
<path d="M46.4656 33.76H24.2274C21.6295 33.7571 19.5242 31.6517 19.5212 29.0539V17.1596C19.5241 14.5616 21.6295 12.4564 24.2274 12.4534H46.4656C49.0636 12.4562 51.1689 14.5616 51.1719 17.1596V29.0539C51.1689 31.6519 49.0636 33.7571 46.4656 33.76V33.76ZM24.2274 14.7973C22.9234 14.7988 21.8665 15.8556 21.8649 17.1598V29.0541C21.8665 30.3581 22.9232 31.415 24.2274 31.4164H46.4656C47.7697 31.415 48.8266 30.3581 48.8281 29.0541V17.1598C48.8266 15.8557 47.7699 14.7988 46.4656 14.7973H24.2274Z" fill="#1E2E36"/>
<path d="M75.7723 33.76H53.5341C50.9361 33.7571 48.8309 31.6517 48.8278 29.0539V17.1596C48.8307 14.5616 50.9361 12.4564 53.5341 12.4534H75.7723C78.3703 12.4562 80.4755 14.5616 80.4785 17.1596V29.0539C80.4755 31.6519 78.3703 33.7571 75.7723 33.76V33.76ZM53.5341 14.7973C52.23 14.7988 51.1731 15.8556 51.1716 17.1598V29.0541C51.1731 30.3581 52.2299 31.415 53.5341 31.4164H75.7723C77.0763 31.415 78.1333 30.3581 78.1348 29.0541V17.1598C78.1333 15.8557 77.0765 14.7988 75.7723 14.7973H53.5341Z" fill="#1E2E36"/>
<path d="M85.533 92.9248H14.4667C11.8689 92.9218 9.76366 90.8167 9.76062 88.2187V36.1223C9.76366 33.5245 11.8689 31.4193 14.4667 31.4163H85.533C88.131 31.4191 90.2363 33.5244 90.2393 36.1223V88.2187C90.2363 90.8165 88.131 92.9218 85.533 92.9248ZM14.4667 33.76C13.1627 33.7614 12.1057 34.8183 12.1042 36.1223V88.2187C12.1057 89.5228 13.1625 90.5795 14.4667 90.5811H85.533C86.8371 90.5795 87.8939 89.5228 87.8954 88.2187V36.1223C87.8939 34.8183 86.8371 33.7614 85.533 33.76H14.4667Z" fill="#1E2E36"/>
<path d="M85.9842 9.41893H14.0157C11.6667 9.41623 9.76332 7.51268 9.76062 5.16386V4.25507C9.76332 1.90625 11.6667 0.00270271 14.0157 0H85.9842C88.3332 0.00270271 90.2366 1.90625 90.2393 4.25507V5.16386C90.2366 7.51285 88.3331 9.41623 85.9842 9.41893ZM14.0157 2.34375C12.9606 2.34494 12.1056 3.20001 12.1044 4.25507V5.16386C12.1056 6.21893 12.9606 7.074 14.0157 7.07518H85.9842C87.0393 7.074 87.8944 6.21893 87.8956 5.16386V4.25507C87.8944 3.20001 87.0393 2.34494 85.9842 2.34375H14.0157Z" fill="#1E2E36"/>
<path d="M85.9842 100H14.0157C11.6667 99.9973 9.76332 98.0937 9.76062 95.7449V94.8361C9.76332 92.4871 11.6669 90.5838 14.0157 90.5811H85.9842C88.3332 90.5838 90.2366 92.4873 90.2393 94.8361V95.7449C90.2366 98.0937 88.3331 99.9973 85.9842 100ZM14.0157 92.9248C12.9606 92.926 12.1056 93.7811 12.1044 94.8361V95.7449C12.1056 96.8 12.9606 97.655 14.0157 97.6562H85.9842C87.0393 97.655 87.8944 96.8 87.8956 95.7449V94.8361C87.8944 93.7811 87.0393 92.926 85.9842 92.9248H14.0157Z" fill="#1E2E36"/>
</g>
<defs>
<clipPath id="clip0_628_525">
<rect width="100" height="100" fill="white"/>
</clipPath>
</defs>
</svg>

<svg width="100" height="100" fill="none" xmlns="http://www.w3.org/2000/svg"><g clip-path="url(#clip0_628_525)" fill="#1E2E36"><path d="M84.685 33.76h-69.37a1.172 1.172 0 01-1.172-1.172V8.248c0-.648.525-1.173 1.172-1.173h69.37c.647 0 1.172.525 1.172 1.172v24.341c0 .647-.525 1.172-1.172 1.172zm-68.198-2.344h67.026V9.42H16.487v21.997z"/><path d="M79.307 33.76H20.693a1.172 1.172 0 01-1.172-1.172V13.625c0-.647.525-1.171 1.172-1.171h58.614c.647 0 1.172.524 1.172 1.171v18.963c0 .647-.525 1.172-1.172 1.172zm-57.442-2.344h56.27V14.797h-56.27v16.62z"/><path d="M46.466 33.76H24.227a4.712 4.712 0 01-4.706-4.706V17.16a4.712 4.712 0 014.706-4.707h22.239a4.711 4.711 0 014.706 4.707v11.894a4.711 4.711 0 01-4.706 4.706zM24.227 14.797a2.365 2.365 0 00-2.362 2.363v11.894a2.365 2.365 0 002.362 2.362h22.239a2.365 2.365 0 002.362-2.362V17.16a2.365 2.365 0 00-2.362-2.363H24.227z"/><path d="M75.772 33.76H53.534a4.712 4.712 0 01-4.706-4.706V17.16a4.712 4.712 0 014.706-4.707h22.238a4.711 4.711 0 014.706 4.707v11.894a4.711 4.711 0 01-4.706 4.706zM53.534 14.797a2.365 2.365 0 00-2.362 2.363v11.894a2.365 2.365 0 002.362 2.362h22.238a2.365 2.365 0 002.363-2.362V17.16a2.365 2.365 0 00-2.363-2.363H53.534z"/><path d="M85.533 92.925H14.467a4.712 4.712 0 01-4.706-4.706V36.122a4.712 4.712 0 014.706-4.706h71.066a4.711 4.711 0 014.706 4.706V88.22a4.712 4.712 0 01-4.706 4.706zM14.467 33.76a2.365 2.365 0 00-2.363 2.362V88.22a2.365 2.365 0 002.363 2.362h71.066a2.365 2.365 0 002.362-2.362V36.122a2.365 2.365 0 00-2.362-2.362H14.467zM85.984 9.419H14.016A4.26 4.26 0 019.76 5.164v-.909A4.26 4.26 0 0114.016 0h71.968a4.26 4.26 0 014.255 4.255v.909a4.26 4.26 0 01-4.255 4.255zM14.016 2.344a1.913 1.913 0 00-1.912 1.911v.909a1.913 1.913 0 001.912 1.911h71.968a1.914 1.914 0 001.912-1.911v-.909a1.914 1.914 0 00-1.912-1.911H14.016z"/><path d="M85.984 100H14.016a4.26 4.26 0 01-4.255-4.255v-.909a4.26 4.26 0 014.255-4.255h71.968a4.26 4.26 0 014.255 4.255v.909A4.26 4.26 0 0185.984 100zm-71.968-7.075a1.914 1.914 0 00-1.912 1.911v.909a1.913 1.913 0 001.912 1.911h71.968a1.914 1.914 0 001.912-1.911v-.909a1.914 1.914 0 00-1.912-1.911H14.016z"/></g><defs><clipPath id="clip0_628_525"><path fill="#fff" d="M0 0h100v100H0z"/></clipPath></defs></svg>
